public/images/contact/github.svg

<svg fill="none" height="45" viewBox="0 0 45 45" width="45" xmlns="http://www.w3.org/2000/svg"><path d="m15.043 35.5078c0-.1797-.1797-.3594-.4492-.3594-.2696 0-.4493.1797-.4493.3594s.1797.3594.4493.2695c.2695 0 .4492-.0898.4492-.2695zm-2.7852-.4492c.0899-.1797.3594-.2695.6289-.1797.2695.0899.3594.2695.3594.4492-.0899.1797-.3594.2696-.5391.1797-.2695 0-.4492-.2695-.4492-.4492zm4.043-.0898c.1797-.0899.4492.0898.4492.2695.0898.1797-.0898.2695-.3594.3594-.2695.0898-.539 0-.539-.1797 0-.2696.1796-.4492.4492-.4492zm5.8398-34.50005c12.4883 0 22.6406 9.52344 22.6406 21.92185 0 9.9727-6.1093 18.5078-15.0937 21.4727-1.168.2695-1.6172-.4492-1.6172-1.0781 0-.7188.0899-4.4922.0899-7.4571 0-2.1562-.7188-3.5039-1.5274-4.2226 5.0313-.5391 10.332-1.2578 10.332-9.8828 0-2.5157-.8984-3.6836-2.3359-5.3008.1797-.6289.9883-2.9649-.2695-6.1094-1.8867-.62891-6.1992 2.4258-6.1992 2.4258-1.7969-.5391-3.6836-.7188-5.6602-.7188-1.8867 0-3.7734.1797-5.5703.7188 0 0-4.4024-2.96486-6.1992-2.4258-1.25784 3.1445-.5391 5.4805-.2696 6.1094-1.43746 1.6172-2.15621 2.7851-2.15621 5.3008 0 8.625 5.12111 9.3437 10.15231 9.8828-.7187.6289-1.2578 1.6172-1.4375 3.0547-1.3476.6289-4.582 1.6171-6.5586-1.8868-1.25778-2.1562-3.50387-2.3359-3.50387-2.3359-2.15625 0-.08984 1.4375-.08984 1.4375 1.4375.6289 2.42578 3.2344 2.42578 3.2344 1.34763 4.0429 7.63673 2.6953 7.63673 2.6953v5.5703c0 .5391-.3594 1.2578-1.5274 1.0781-8.98433-3.0547-15.18355-11.5898-15.18355-21.5625 0-12.39841 9.52344-21.92185 21.92185-21.92185zm-13.20701 30.99605c.08985-.0898.26953 0 .44922.0899.17969.1797.17969.4492.08985.5391-.17969.0898-.35938 0-.53907-.0899-.08984-.1797-.17968-.4492 0-.5391zm-.98828-.7187c.08985-.0899.17969-.0899.35938 0 .17969.0898.26953.1797.26953.2695-.08984.1797-.26953.1797-.44922.0899-.17969-.0899-.26953-.1797-.17969-.3594zm2.87499 3.2344c.1797-.1797.4492-.0899.6289.0898s.1797.4492.0899.5391c-.0899.1797-.3594.0898-.5391-.0899-.2695-.1797-.2695-.4492-.1797-.539zm-.98827-1.3477c.17967-.0898.35937 0 .53907.1797.0898.1797.0898.4492 0 .5391-.1797.0898-.3594 0-.53907-.1797-.17969-.1797-.17969-.4492 0-.5391z" fill="#fff"/></svg>

<svg width="45" height="45" viewBox="0 0 45 45" fill="none" xmlns="http://www.w3.org/2000/svg">
<path d="M15.043 35.5078C15.043 35.3281 14.8633 35.1484 14.5938 35.1484C14.3242 35.1484 14.1445 35.3281 14.1445 35.5078C14.1445 35.6875 14.3242 35.8672 14.5938 35.7773C14.8633 35.7773 15.043 35.6875 15.043 35.5078ZM12.2578 35.0586C12.3477 34.8789 12.6172 34.7891 12.8867 34.8789C13.1562 34.9688 13.2461 35.1484 13.2461 35.3281C13.1562 35.5078 12.8867 35.5977 12.707 35.5078C12.4375 35.5078 12.2578 35.2383 12.2578 35.0586ZM16.3008 34.9688C16.4805 34.8789 16.75 35.0586 16.75 35.2383C16.8398 35.418 16.6602 35.5078 16.3906 35.5977C16.1211 35.6875 15.8516 35.5977 15.8516 35.418C15.8516 35.1484 16.0312 34.9688 16.3008 34.9688ZM22.1406 0.46875C34.6289 0.46875 44.7812 9.99219 44.7812 22.3906C44.7812 32.3633 38.6719 40.8984 29.6875 43.8633C28.5195 44.1328 28.0703 43.4141 28.0703 42.7852C28.0703 42.0664 28.1602 38.293 28.1602 35.3281C28.1602 33.1719 27.4414 31.8242 26.6328 31.1055C31.6641 30.5664 36.9648 29.8477 36.9648 21.2227C36.9648 18.707 36.0664 17.5391 34.6289 15.9219C34.8086 15.293 35.6172 12.957 34.3594 9.8125C32.4727 9.18359 28.1602 12.2383 28.1602 12.2383C26.3633 11.6992 24.4766 11.5195 22.5 11.5195C20.6133 11.5195 18.7266 11.6992 16.9297 12.2383C16.9297 12.2383 12.5273 9.27344 10.7305 9.8125C9.47266 12.957 10.1914 15.293 10.4609 15.9219C9.02344 17.5391 8.30469 18.707 8.30469 21.2227C8.30469 29.8477 13.4258 30.5664 18.457 31.1055C17.7383 31.7344 17.1992 32.7227 17.0195 34.1602C15.6719 34.7891 12.4375 35.7773 10.4609 32.2734C9.20312 30.1172 6.95703 29.9375 6.95703 29.9375C4.80078 29.9375 6.86719 31.375 6.86719 31.375C8.30469 32.0039 9.29297 34.6094 9.29297 34.6094C10.6406 38.6523 16.9297 37.3047 16.9297 37.3047C16.9297 39.1914 16.9297 42.2461 16.9297 42.875C16.9297 43.4141 16.5703 44.1328 15.4023 43.9531C6.41797 40.8984 0.21875 32.3633 0.21875 22.3906C0.21875 9.99219 9.74219 0.46875 22.1406 0.46875ZM8.93359 31.4648C9.02344 31.375 9.20312 31.4648 9.38281 31.5547C9.5625 31.7344 9.5625 32.0039 9.47266 32.0938C9.29297 32.1836 9.11328 32.0938 8.93359 32.0039C8.84375 31.8242 8.75391 31.5547 8.93359 31.4648ZM7.94531 30.7461C8.03516 30.6562 8.125 30.6562 8.30469 30.7461C8.48438 30.8359 8.57422 30.9258 8.57422 31.0156C8.48438 31.1953 8.30469 31.1953 8.125 31.1055C7.94531 31.0156 7.85547 30.9258 7.94531 30.7461ZM10.8203 33.9805C11 33.8008 11.2695 33.8906 11.4492 34.0703C11.6289 34.25 11.6289 34.5195 11.5391 34.6094C11.4492 34.7891 11.1797 34.6992 11 34.5195C10.7305 34.3398 10.7305 34.0703 10.8203 33.9805ZM9.83203 32.6328C10.0117 32.543 10.1914 32.6328 10.3711 32.8125C10.4609 32.9922 10.4609 33.2617 10.3711 33.3516C10.1914 33.4414 10.0117 33.3516 9.83203 33.1719C9.65234 32.9922 9.65234 32.7227 9.83203 32.6328Z" fill="white"/>
</svg>
